flaticon/gastronomy/lemon-1.svg

<svg xmlns="http://www.w3.org/2000/svg" width="32" height="32" viewBox="0 0 24 24">
    <path d="M 22.316406 13.0625 L 21.71875 13.0625 C 22.554688 10.269531 22.355469 7.472656 21.152344 5.253906 C 21.507812 4.867188 21.707031 4.363281 21.707031 3.828125 C 21.707031 3.265625 21.488281 2.738281 21.089844 2.34375 C 20.320312 1.570312 19.089844 1.523438 18.261719 2.207031 C 14.191406 -0.308594 8.308594 0.84375 4.132812 5.019531 C -0.0429688 9.195312 -1.195312 15.078125 1.320312 19.152344 C 0.636719 19.976562 0.679688 21.207031 1.453125 21.976562 C 2.253906 22.777344 3.542969 22.796875 4.367188 22.039062 C 5.683594 22.753906 7.207031 23.113281 8.8125 23.113281 C 10.03125 23.113281 11.300781 22.898438 12.558594 22.480469 C 13.261719 22.648438 13.992188 22.742188 14.742188 22.742188 C 19.847656 22.742188 24 18.589844 24 13.484375 L 24 13.0625 Z M 9.695312 17.933594 C 8.734375 16.847656 8.121094 15.445312 8.023438 13.90625 L 13.726562 13.90625 Z M 14.324219 14.5 L 14.324219 20.195312 C 12.785156 20.097656 11.386719 19.488281 10.296875 18.527344 Z M 15.164062 14.5 L 19.191406 18.527344 C 18.101562 19.488281 16.703125 20.097656 15.164062 20.195312 Z M 19.789062 17.933594 L 15.757812 13.90625 L 21.460938 13.90625 C 21.367188 15.445312 20.75 16.847656 19.789062 17.933594 Z M 4.515625 21.152344 L 4.234375 20.984375 L 3.835938 21.382812 C 3.34375 21.875 2.542969 21.875 2.050781 21.382812 C 1.558594 20.890625 1.558594 20.089844 2.050781 19.597656 L 2.394531 19.25 L 2.203125 18.964844 C -0.28125 15.277344 0.804688 9.539062 4.726562 5.613281 C 8.652344 1.6875 14.394531 0.605469 18.078125 3.089844 L 18.367188 3.28125 L 18.710938 2.9375 C 19.203125 2.445312 20.003906 2.445312 20.496094 2.9375 C 20.734375 3.175781 20.863281 3.492188 20.863281 3.828125 C 20.863281 4.167969 20.734375 4.484375 20.496094 4.722656 L 20.097656 5.121094 L 20.265625 5.402344 C 21.527344 7.515625 21.730469 10.296875 20.835938 13.0625 L 5.488281 13.0625 L 5.488281 13.484375 C 5.488281 13.695312 5.496094 13.902344 5.511719 14.109375 C 5.511719 14.160156 5.519531 14.210938 5.523438 14.265625 C 5.539062 14.460938 5.558594 14.65625 5.589844 14.851562 C 5.589844 14.859375 5.589844 14.871094 5.59375 14.878906 C 5.621094 15.082031 5.664062 15.28125 5.707031 15.480469 C 5.71875 15.527344 5.726562 15.574219 5.738281 15.625 C 5.78125 15.804688 5.828125 15.980469 5.882812 16.15625 C 5.886719 16.175781 5.894531 16.195312 5.898438 16.214844 C 5.957031 16.402344 6.023438 16.589844 6.09375 16.769531 C 6.113281 16.824219 6.132812 16.878906 6.15625 16.929688 C 6.214844 17.078125 6.277344 17.222656 6.34375 17.367188 C 6.363281 17.40625 6.378906 17.445312 6.398438 17.488281 C 6.476562 17.648438 6.5625 17.808594 6.648438 17.96875 C 6.6875 18.035156 6.722656 18.097656 6.761719 18.164062 C 6.824219 18.273438 6.894531 18.378906 6.960938 18.488281 C 7.007812 18.558594 7.054688 18.632812 7.105469 18.707031 C 7.191406 18.832031 7.277344 18.953125 7.371094 19.070312 C 7.421875 19.140625 7.476562 19.207031 7.53125 19.277344 C 7.601562 19.367188 7.675781 19.453125 7.753906 19.542969 C 7.816406 19.613281 7.878906 19.683594 7.941406 19.753906 C 8.042969 19.867188 8.152344 19.976562 8.261719 20.082031 C 8.3125 20.132812 8.367188 20.183594 8.421875 20.234375 C 8.535156 20.34375 8.648438 20.445312 8.765625 20.542969 C 8.792969 20.566406 8.820312 20.59375 8.847656 20.613281 C 9.003906 20.742188 9.164062 20.867188 9.328125 20.984375 C 9.355469 21.003906 9.378906 21.019531 9.40625 21.039062 C 9.941406 21.417969 10.519531 21.746094 11.132812 22.007812 C 8.722656 22.550781 6.363281 22.253906 4.515625 21.152344 Z M 14.742188 21.898438 C 14.023438 21.898438 13.332031 21.800781 12.664062 21.628906 C 12.445312 21.574219 12.230469 21.507812 12.019531 21.4375 C 12.007812 21.433594 11.992188 21.429688 11.980469 21.421875 C 11.777344 21.351562 11.578125 21.273438 11.378906 21.191406 C 11.363281 21.183594 11.34375 21.171875 11.328125 21.164062 C 10.839844 20.949219 10.382812 20.6875 9.953125 20.386719 C 9.828125 20.304688 9.707031 20.21875 9.585938 20.125 C 9.519531 20.074219 9.453125 20.015625 9.386719 19.960938 C 9.261719 19.855469 9.132812 19.75 9.011719 19.636719 C 8.957031 19.582031 8.898438 19.527344 8.84375 19.472656 C 8.71875 19.347656 8.597656 19.222656 8.480469 19.09375 C 8.433594 19.039062 8.386719 18.988281 8.339844 18.933594 C 8.214844 18.789062 8.097656 18.636719 7.980469 18.480469 C 7.949219 18.4375 7.917969 18.398438 7.886719 18.355469 C 7.597656 17.953125 7.347656 17.523438 7.132812 17.070312 C 7.105469 17.011719 7.082031 16.949219 7.054688 16.890625 C 6.980469 16.726562 6.914062 16.5625 6.851562 16.390625 C 6.820312 16.308594 6.792969 16.226562 6.765625 16.140625 C 6.714844 15.988281 6.667969 15.835938 6.625 15.679688 C 6.601562 15.589844 6.578125 15.496094 6.554688 15.40625 C 6.515625 15.242188 6.484375 15.078125 6.457031 14.910156 C 6.441406 14.828125 6.425781 14.746094 6.414062 14.664062 C 6.378906 14.414062 6.351562 14.160156 6.339844 13.90625 L 7.191406 13.90625 C 7.410156 17.882812 10.710938 21.058594 14.742188 21.058594 C 18.777344 21.058594 22.074219 17.882812 22.296875 13.90625 L 23.148438 13.90625 C 22.929688 18.351562 19.242188 21.898438 14.742188 21.898438 Z M 14.742188 21.898438"/>
    <path d="M 12.582031 5.210938 C 12.644531 5.199219 12.707031 5.191406 12.765625 5.183594 L 12.824219 5.183594 C 12.878906 5.183594 12.933594 5.191406 12.984375 5.195312 L 13.058594 5.207031 C 13.101562 5.214844 13.144531 5.21875 13.179688 5.21875 C 13.257812 5.230469 13.332031 5.234375 13.410156 5.234375 C 13.992188 5.234375 14.476562 4.917969 14.667969 4.378906 C 14.796875 4.027344 14.757812 3.597656 14.566406 3.25 C 14.398438 2.945312 14.136719 2.734375 13.824219 2.664062 C 13.234375 2.53125 12.703125 2.507812 12.148438 2.59375 C 11.808594 2.644531 11.503906 2.832031 11.296875 3.121094 C 11.085938 3.414062 10.996094 3.777344 11.058594 4.125 C 11.179688 4.832031 11.863281 5.316406 12.582031 5.210938 Z M 11.980469 3.613281 C 12.054688 3.507812 12.160156 3.441406 12.273438 3.425781 C 12.71875 3.355469 13.152344 3.378906 13.636719 3.488281 C 13.730469 3.507812 13.792969 3.589844 13.828125 3.652344 C 13.902344 3.789062 13.921875 3.96875 13.878906 4.09375 C 13.75 4.449219 13.367188 4.402344 13.207031 4.367188 L 13.207031 4.378906 L 13.195312 4.375 C 13.140625 4.367188 13.085938 4.359375 13.066406 4.355469 C 12.988281 4.351562 12.914062 4.34375 12.84375 4.34375 L 12.785156 4.34375 L 12.683594 4.347656 C 12.605469 4.355469 12.53125 4.367188 12.453125 4.378906 C 12.1875 4.417969 11.929688 4.242188 11.886719 3.984375 C 11.867188 3.859375 11.898438 3.722656 11.980469 3.613281 Z M 11.980469 3.613281"/>
</svg>

<svg xmlns="http://www.w3.org/2000/svg" width="32" height="32" viewBox="0 0 24 24">
    <path d="M22.316 13.063h-.597c.836-2.793.636-5.59-.567-7.81.356-.386.555-.89.555-1.425 0-.562-.219-1.09-.617-1.484-.77-.774-2-.82-2.828-.137C14.192-.309 8.309.844 4.132 5.02-.042 9.195-1.194 15.078 1.32 19.152a2.1 2.1 0 0 0 .133 2.825c.8.8 2.09.82 2.914.062 1.317.715 2.84 1.074 4.446 1.074 1.218 0 2.488-.215 3.746-.633a9.386 9.386 0 0 0 2.183.262c5.106 0 9.258-4.152 9.258-9.258v-.421zm-12.62 4.87a6.708 6.708 0 0 1-1.673-4.027h5.704zm4.628-3.433v5.695a6.714 6.714 0 0 1-4.027-1.668zm.84 0l4.027 4.027a6.714 6.714 0 0 1-4.027 1.668zm4.625 3.434l-4.031-4.028h5.703a6.684 6.684 0 0 1-1.672 4.028zM4.516 21.152l-.282-.168-.398.399a1.264 1.264 0 0 1-1.785 0 1.264 1.264 0 0 1 0-1.785l.344-.348-.192-.285C-.28 15.277.805 9.539 4.727 5.613 8.652 1.687 14.395.605 18.078 3.09l.29.191.343-.344a1.264 1.264 0 0 1 1.785 0c.238.239.367.555.367.891 0 .34-.129.656-.367.895l-.398.398.168.281c1.261 2.114 1.464 4.895.57 7.66H5.488v.422c0 .211.008.418.024.625 0 .051.008.102.011.157a7.468 7.468 0 0 0 .07.613c.028.203.071.402.114.601.012.047.02.094.031.145.043.18.09.355.145.531.004.02.012.04.015.059.059.187.125.375.196.555.02.054.039.109.062.16.059.148.121.293.188.437.02.04.035.078.054.121.079.16.165.32.25.48l.114.196c.062.11.133.215.199.324.047.07.094.145.144.219.086.125.172.246.266.363.05.07.106.137.16.207.07.09.145.176.223.266l.187.21c.102.114.211.224.32.329l.16.152c.114.11.227.211.345.309.027.023.054.05.082.07.156.13.316.254.48.371l.078.055a9.33 9.33 0 0 0 1.727.969c-2.41.543-4.77.246-6.617-.856zm10.226.746c-.719 0-1.41-.097-2.078-.27a8.763 8.763 0 0 1-.644-.19c-.012-.004-.028-.008-.04-.016-.203-.07-.402-.149-.601-.23l-.05-.028a8.043 8.043 0 0 1-1.376-.777 5.74 5.74 0 0 1-.367-.262c-.066-.05-.133-.11-.2-.164-.124-.106-.253-.211-.374-.324l-.168-.164a11.01 11.01 0 0 1-.364-.38l-.14-.16a8.32 8.32 0 0 1-.36-.453c-.03-.043-.062-.082-.093-.125a8.265 8.265 0 0 1-.754-1.285c-.028-.058-.051-.12-.078-.18a7.039 7.039 0 0 1-.29-.75 8.99 8.99 0 0 1-.14-.46l-.07-.274a6.957 6.957 0 0 1-.098-.496c-.016-.082-.031-.164-.043-.246a8.157 8.157 0 0 1-.074-.758h.851c.22 3.977 3.52 7.153 7.551 7.153 4.035 0 7.332-3.176 7.555-7.153h.851c-.218 4.446-3.906 7.992-8.406 7.992zm0 0"/>
    <path d="M12.582 5.21c.063-.01.125-.019.184-.026h.058c.055 0 .11.007.16.011l.075.012a.702.702 0 0 0 .12.012c.079.011.153.015.231.015.582 0 1.067-.316 1.258-.855a1.4 1.4 0 0 0-.102-1.129c-.168-.305-.43-.516-.742-.586a4.359 4.359 0 0 0-1.676-.07c-.34.05-.644.238-.851.527-.211.293-.3.656-.238 1.004.12.707.804 1.191 1.523 1.086zm-.602-1.597a.435.435 0 0 1 .293-.187c.446-.07.88-.047 1.364.062.093.02.156.102.191.164a.592.592 0 0 1 .05.442c-.128.355-.51.308-.671.273v.012l-.012-.004a3.868 3.868 0 0 1-.129-.02c-.078-.003-.152-.011-.222-.011h-.059l-.101.004c-.079.007-.153.02-.23.03a.498.498 0 0 1-.567-.394.496.496 0 0 1 .093-.37zm0 0"/>
</svg>
